docs/img/input-check-icons.svg

<svg width="32" height="60" viewBox="0 0 32 60" fill="none" xmlns="http://www.w3.org/2000/svg">
<path d="M9.5 52.5L16.1708 59.1708" stroke="white" stroke-linecap="square"/>
<path d="M26.5 43.5L16.1708 59.1708" stroke="white" stroke-linecap="square"/>
<path fill-rule="evenodd" clip-rule="evenodd" d="M16 34C24.8366 34 32 26.8366 32 18C32 9.16344 24.8366 2 16 2C7.16344 2 0 9.16344 0 18C0 26.8366 7.16344 34 16 34Z" fill="#B40000"/>
<path d="M14.3672 23.582C14.3672 23.1523 14.5247 22.7835 14.8398 22.4756C15.1549 22.1676 15.5345 22.0137 15.9785 22.0137C16.4225 22.0137 16.8021 22.1784 17.1172 22.5078C17.4323 22.8301 17.5898 23.2096 17.5898 23.6465C17.5898 24.0762 17.4323 24.4486 17.1172 24.7637C16.8092 25.0788 16.4368 25.2363 16 25.2363C15.5488 25.2363 15.1621 25.0752 14.8398 24.7529C14.5247 24.4307 14.3672 24.0404 14.3672 23.582ZM16.0645 10.2402C16.4225 10.2402 16.734 10.3727 16.999 10.6377C17.264 10.9027 17.3965 11.2572 17.3965 11.7012C17.3965 11.9876 17.2819 13.2337 17.0527 15.4395C16.8522 17.1367 16.666 18.7409 16.4941 20.252C16.4512 20.6172 16.3008 20.7998 16.043 20.7998C15.7493 20.7998 15.5811 20.61 15.5381 20.2305C15.3161 18.5977 15.1335 17.0794 14.9902 15.6758C14.7611 13.513 14.6465 12.181 14.6465 11.6797C14.6465 11.2357 14.7826 10.8848 15.0547 10.627C15.3268 10.3691 15.6634 10.2402 16.0645 10.2402Z" fill="white"/>
</svg>

<svg width="32" height="60" viewBox="0 0 32 60" fill="none" xmlns="http://www.w3.org/2000/svg"><path d="M9.5 52.5l6.67 6.67M26.5 43.5L16.17 59.17" stroke="#fff" stroke-linecap="square"/><path fill-rule="evenodd" clip-rule="evenodd" d="M16 34c8.837 0 16-7.163 16-16S24.837 2 16 2 0 9.163 0 18s7.163 16 16 16z" fill="#B40000"/><path d="M14.367 23.582c0-.43.158-.799.473-1.106a1.57 1.57 0 0 1 1.139-.462c.444 0 .823.164 1.138.494.315.322.473.702.473 1.139 0 .43-.158.802-.473 1.117-.308.315-.68.472-1.117.472-.451 0-.838-.16-1.16-.483a1.613 1.613 0 0 1-.473-1.171zm1.697-13.342c.358 0 .67.133.935.398s.398.62.398 1.063c0 .287-.115 1.533-.344 3.739-.2 1.697-.387 3.3-.559 4.812-.043.365-.193.548-.451.548-.294 0-.462-.19-.505-.57a137.997 137.997 0 0 1-.548-4.554c-.229-2.163-.344-3.495-.344-3.996 0-.444.137-.795.409-1.053a1.412 1.412 0 0 1 1.01-.387z" fill="#fff"/></svg>
